X: 2
T: Kyrie-Gloria-Credo Sine nomine / Gloria
N: Derived from Ock1001b-Kyrie_Gloria_Credo_Sine_nomine-Gloria.krn
C: Johannes Ockeghem
%%abc-version 2.0
%%abcx-abcm2ps-target-version 5.9.1 (29 Sep 2008)
%%abc-creator hum2abc beta
%%abcx-conversion-date 2019/02/17 07:26:13
%%abc-edited-by Jesse Rodin
%%abc-edited-by Jesse Rodin 8-17-2012
%%abcx-initial-encoding-date 2012/08/17/
%%humdrum-veritas 552633674
%%humdrum-veritas-data 3350792427
%%linebreak <none>
%%barnumbers 0
L: 1/4
M: 2/1
Q: 1/2=120
V: 1 clef=treble
V: 2 clef=treble-8
V: 3 clef=treble-8
V: 4 clef=bass
V: 5 clef=bass
K: C
[V:1] E4G4 | 
[V:2] e4e4 | 
[V:3] z8 | 
[V:4] E,4E,4 | 
[V:5] z8 | 
[V:1] A4A2A2- | 
[V:2] f2e4d2 | 
[V:3] z8 | 
[V:4] D,2C,2D,4 | 
[V:5] z8 | 
[V:1] A2G2A2B2- | 
[V:2] c4f4- | 
[V:3] z4d4- | 
[V:4] E,4D,4 | 
[V:5] z8 | 
[V:1] B2A4^G2 | 
[V:2] f2e4d2 | 
[V:3] d2c2B4 | 
[V:4] z8 | 
[V:5] z8 | 
[V:1] A4A2A2 | 
[V:2] e4e4 | 
[V:3] A4z4 | 
[V:4] z8 | 
[V:5] A,,4C,3B,, | 
[V:1] G2A4G2 | 
[V:2] e2f2d2e2- | 
[V:3] z8 | 
[V:4] z8 | 
[V:5] G,,2F,,4G,,2 | 
[V:1] F4E4 | 
[V:2] e2d2c4 | 
[V:3] A4A4 | 
[V:4] D,4A,,4 | 
[V:5] D,,4A,,4 | 
[V:1] z8 | 
[V:2] B4e4 | 
[V:3] G4E4 | 
[V:4] E,2E,4D,2 | 
[V:5] E,,4z4 | 
[V:1] z8 | 
[V:2] e2e4d2 | 
[V:3] z8 | 
[V:4] C,4B,,4 | 
[V:5] A,,4G,,4 | 
[V:1] z8 | 
[V:2] c4B4 | 
[V:3] A4G4 | 
[V:4] z2E,2E,2E,2 | 
[V:5] A,,4E,,4 | 
[V:1] z8 | 
[V:2] z4e2e2 | 
[V:3] A2B2c3B | 
[V:4] D,2B,,2z2E,2- | 
[V:5] F,,2G,,2A,,4 | 
[V:1] z8 | 
[V:2] e2e2d2B2 | 
[V:3] G8 | 
[V:4] E,2C,2D,4 | 
[V:5] C,4G,,4 | 
[V:1] z8 | 
[V:2] z8 | 
[V:3] E4G2A2 | 
[V:4] C,4D,2C,2 | 
[V:5] z2A,,2B,,2A,,2 | 
[V:1] z8 | 
[V:2] z8 | 
[V:3] A2G2A2B2- | 
[V:4] E,3D,E,2F,2- | 
[V:5] C,3G,,C,2D,2 | 
[V:1] z8 | 
[V:2] z8 | 
[V:3] B2A4^G2 | 
[V:4] F,2E,4D,2 | 
[V:5] A,,4B,,4 | 
[V:1] E4E2E2 | 
[V:2] c6c2 | 
[V:3] A2A2A2A2 | 
[V:4] E,6C,2 | 
[V:5] A,,4A,,4 | 
[V:1] E2F2E2F2- | 
[V:2] c3AB2c2- | 
[V:3] A2A2G2A2- | 
[V:4] C,3D,B,,2A,,2- | 
[V:5] A,,3F,,G,,2F,,2- | 
[V:1] F2E3DDC | 
[V:2] cBc2A4 | 
[V:3] A2E2F4 | 
[V:4] A,,2G,,2F,,4 | 
[V:5] F,,2C,,2D,,4 | 
[V:1] E6C2 | 
[V:2] z2A2A2A2 | 
[V:3] E4z4 | 
[V:4] z2C,4A,,2 | 
[V:5] A,,8 | 
[V:1] B,2A,2C2B,2- | 
[V:2] G2E4G2- | 
[V:3] z8 | 
[V:4] B,,2C,4E,2- | 
[V:5] E,,2z2z4 | 
[V:1] B,2A,4^G,2 | 
[V:2] G2A2B4 | 
[V:3] z8 | 
[V:4] E,2F,3D,E,2 | 
[V:5] z8 | 
[V:1] A,4z4 | 
[V:2] A4A4 | 
[V:3] E8 | 
[V:4] A,,4C,4 | 
[V:5] z4A,,4 | 
[V:1] z8 | 
[V:2] A2A2G2A2- | 
[V:3] E2E2D2E2- | 
[V:4] C,2C,2B,,2C,2- | 
[V:5] A,,2A,,2_B,,2A,,2- | 
[V:1] z8 | 
[V:2] A2G2F4 | 
[V:3] E2D2C4 | 
[V:4] C,2B,,2A,,4 | 
[V:5] A,,F,,G,,2A,,4 | 
[V:1] z4A4 | 
[V:2] E4z2e2- | 
[V:3] B,4C4- | 
[V:4] G,,4A,,4 | 
[V:5] E,,4z4 | 
[V:1] A2A2G2E2- | 
[V:2] e2e2e2e2 | 
[V:3] C4E4 | 
[V:4] A,,4C,4 | 
[V:5] z8 | 
[V:1] E2G2A2B2- | 
[V:2] c2c2A2d2- | 
[V:3] G4z4 | 
[V:4] E,4F,2G,2- | 
[V:5] z8 | 
[V:1] B2A2A4 | 
[V:2] d2c2d4 | 
[V:3] z4A4 | 
[V:4] G,2A,4F,2 | 
[V:5] z4D,,4 | 
[V:1] G4A4 | 
[V:2] e4f4 | 
[V:3] B4c4 | 
[V:4] E,4A,,4 | 
[V:5] G,,4F,,4 | 
[V:1] G2E2F4 | 
[V:2] e2B2d4 | 
[V:3] B4A4 | 
[V:4] B,,4D,4 | 
[V:5] G,,4D,,4 | 
[V:1] E4z4 | 
[V:2] c4d4 | 
[V:3] z4A4 | 
[V:4] E,4F,4 | 
[V:5] A,,4D,4 | 
[V:1] z8 | 
[V:2] z8 | 
[V:3] A2A2G2E2 | 
[V:4] E,2C,2D,2C,2 | 
[V:5] C,2A,,2B,,2C,2- | 
[V:1] z8 | 
[V:2] A2A2G2E2 | 
[V:3] z8 | 
[V:4] A,,4B,,4 | 
[V:5] C,2F,,2G,,4 | 
[V:1] F6D2 | 
[V:2] z4F4 | 
[V:3] A4A2A2 | 
[V:4] C,4D,4 | 
[V:5] F,,4z4 | 
[V:1] C6D2 | 
[V:2] G4A2G2 | 
[V:3] G2E2E2G2 | 
[V:4] E,4A,,2B,,2 | 
[V:5] z8 | 
[V:1] E2F4E2- | 
[V:2] E2D4G2- | 
[V:3] A2A2A2B2- | 
[V:4] C,2D,4G,,2 | 
[V:5] z8 | 
[V:1] EDD4^C2 | 
[V:2] G2F2G2E2 | 
[V:3] BAA4G2 | 
[V:4] D,4E,4 | 
[V:5] z8 | 
[V:1] D4E2F2- | 
[V:2] F4E2D2 | 
[V:3] A2A2G2A2- | 
[V:4] A,,4z2A,,2- | 
[V:5] D,,4G,,2F,,2- | 
[V:1] FE/D/C2D4 | 
[V:2] z8 | 
[V:3] A2G2F4 | 
[V:4] A,,F,,G,,2A,,2B,,2 | 
[V:5] F,,2E,,2D,,4 | 
[V:1] E2E2G2A2 | 
[V:2] A4B2A2 | 
[V:3] E4E2F2 | 
[V:4] C,4z4 | 
[V:5] A,,4z4 | 
[V:1] A3FG2A2 | 
[V:2] d4c2f2 | 
[V:3] F2D2E2F2 | 
[V:4] z8 | 
[V:5] z8 | 
[V:1] B4A4 | 
[V:2] d2e2f4 | 
[V:3] G4F4 | 
[V:4] z8 | 
[V:5] z8 | 
[V:1] A2A2A2A2 | 
[V:2] f2f2f2f2 | 
[V:3] c2c2c2c2 | 
[V:4] C,2C,2C,2C,2 | 
[V:5] F,,2F,,2F,,2F,,2 | 
[V:1] A2A2G2A2- | 
[V:2] f2f2e2f2- | 
[V:3] c2c2B2c2- | 
[V:4] C,2C,2E,2A,,2- | 
[V:5] F,,2F,,2G,,2F,,2- | 
[V:1] A2E2F4 | 
[V:2] f2e4d2 | 
[V:3] c2B2A4 | 
[V:4] A,,2B,,2C,2D,2 | 
[V:5] F,,2G,,2A,,2B,,2 | 
[V:1] E4z2E2- | 
[V:2] c2A2B2c2- | 
[V:3] G2E2G2A2 | 
[V:4] E,4D,2C,2- | 
[V:5] C,4B,,2A,,2 | 
[V:1] E2F2G2F2 | 
[V:2] c2d2e2d2 | 
[V:3] A2A2G2A2 | 
[V:4] C,A,,A,,2B,,2A,,2 | 
[V:5] C,2F,,2E,,2F,,2 | 
[V:1] G4F2D2 | 
[V:2] e4z2d2 | 
[V:3] B4A2G2 | 
[V:4] G,,4A,,2B,,2- | 
[V:5] E,,4F,,2G,,2 | 
[V:1] G2F4E2- | 
[V:2] e2c2d2c2 | 
[V:3] G2A4G2 | 
[V:4] B,,2A,,4C,2 | 
[V:5] E,,2F,,2D,,2z2 | 
[V:1] E2D2E4 | 
[V:2] A4z2A2- | 
[V:3] F4E4 | 
[V:4] D,4A,,4 | 
[V:5] z8 | 
[V:1] F4E2D2- | 
[V:2] A2A2A2A2 | 
[V:3] z8 | 
[V:4] D,4C,2D,2 | 
[V:5] z8 | 
[V:1] D2C2B,4 | 
[V:2] G2A2G2E2 | 
[V:3] z8 | 
[V:4] B,,2A,,2E,4 | 
[V:5] z8 | 
[V:1] A,4z4 | 
[V:2] z8 | 
[V:3] A2A2A2A2 | 
[V:4] F,4D,2D,2- | 
[V:5] D,,4F,,4 | 
[V:1] E4F4 | 
[V:2] z4A2A2 | 
[V:3] G2E2z4 | 
[V:4] D,2C,2D,4 | 
[V:5] E,,4D,,4 | 
[V:1] F2E4DC | 
[V:2] A2G2A4 | 
[V:3] z8 | 
[V:4] A,,2C,4D,2 | 
[V:5] z8 | 
[V:1] B,4C4 | 
[V:2] G2E2G4 | 
[V:3] z4G4 | 
[V:4] E,4E,4 | 
[V:5] z4E,,4 | 
[V:1] D4B,4 | 
[V:2] A4B4 | 
[V:3] F4G4 | 
[V:4] F,4D,4 | 
[V:5] D,,4G,,4 | 
[V:1] C4z4 | 
[V:2] A4E4 | 
[V:3] E4A4 | 
[V:4] C,8 | 
[V:5] A,,6F,,2 | 
[V:1] z8 | 
[V:2] G4A2B2- | 
[V:3] G4z2F2- | 
[V:4] E,4F,2D,2- | 
[V:5] E,,4z4 | 
[V:1] z8 | 
[V:2] B2A4^G2 | 
[V:3] F2E2D4 | 
[V:4] D,2C,2B,,4 | 
[V:5] z8 | 
[V:1] z4E4 | 
[V:2] A4c4 | 
[V:3] E4A4 | 
[V:4] A,,4E,4 | 
[V:5] z4A,,4 | 
[V:1] F6F2 | 
[V:2] d6d2 | 
[V:3] A6A2 | 
[V:4] D,6D,2 | 
[V:5] D,,6D,,2 | 
[V:1] F4E4 | 
[V:2] d4c4 | 
[V:3] A4G4 | 
[V:4] D,4G,,4 | 
[V:5] D,,4E,,4 | 
[V:1] F4E2D2- | 
[V:2] d4z4 | 
[V:3] F4G4 | 
[V:4] A,,4_B,,4 | 
[V:5] D,,4G,,4 | 
[V:1] D2^C2D4 | 
[V:2] A4B4 | 
[V:3] E4z2G2- | 
[V:4] A,,4D,4 | 
[V:5] A,,4G,,3A,, | 
[V:1] z4D4 | 
[V:2] G2A2B4 | 
[V:3] G2E2D4 | 
[V:4] z4G,,4 | 
[V:5] B,,2C,4B,,2 | 
[V:1] C4D2C2 | 
[V:2] G4B2c2- | 
[V:3] E4G2A2- | 
[V:4] C,3E,D,2E,2 | 
[V:5] C,4B,,2A,,2- | 
[V:1] F3DC2D2- | 
[V:2] c2F2G2F2 | 
[V:3] A2D2E2F2- | 
[V:4] A,,4G,,2A,,2- | 
[V:5] A,,2F,,2E,,2D,,2 | 
[V:1] D2B,2A,4 | 
[V:2] G4A4 | 
[V:3] F2E4D2 | 
[V:4] A,,G,,B,,2C,2D,2 | 
[V:5] G,,4F,,4 | 
[V:1] C8 | 
[V:2] G8- | 
[V:3] E8- | 
[V:4] z2G,,4A,,2 | 
[V:5] E,,8- | 
[V:1] B,8 |]  
[V:2] G8 |]  
[V:3] E8 |]  
[V:4] B,,8 |]  
[V:5] E,,8 |]  



